client/filepreviewer/pdfjs/web/images/messageBar_closingButton.svg

<svg width="16" height="16" viewBox="0 0 16 16" fill="none" xmlns="http://www.w3.org/2000/svg">
    <path d="M7.85822 8.84922L4.85322 11.8542C4.75891 11.9453 4.63261 11.9957 4.50151 11.9946C4.37042 11.9934 4.24501 11.9408 4.15231 11.8481C4.0596 11.7554 4.00702 11.63 4.00588 11.4989C4.00474 11.3678 4.05514 11.2415 4.14622 11.1472L7.15122 8.14222V7.85922L4.14622 4.85322C4.05514 4.75891 4.00474 4.63261 4.00588 4.50151C4.00702 4.37042 4.0596 4.24501 4.15231 4.15231C4.24501 4.0596 4.37042 4.00702 4.50151 4.00588C4.63261 4.00474 4.75891 4.05514 4.85322 4.14622L7.85822 7.15122H8.14122L11.1462 4.14622C11.2405 4.05514 11.3668 4.00474 11.4979 4.00588C11.629 4.00702 11.7544 4.0596 11.8471 4.15231C11.9398 4.24501 11.9924 4.37042 11.9936 4.50151C11.9947 4.63261 11.9443 4.75891 11.8532 4.85322L8.84822 7.85922V8.14222L11.8532 11.1472C11.9443 11.2415 11.9947 11.3678 11.9936 11.4989C11.9924 11.63 11.9398 11.7554 11.8471 11.8481C11.7544 11.9408 11.629 11.9934 11.4979 11.9946C11.3668 11.9957 11.2405 11.9453 11.1462 11.8542L8.14122 8.84922L8.14222 8.85022L7.85822 8.84922Z" fill="black"/>
</svg>

<svg xmlns="http://www.w3.org/2000/svg" width="16" height="16" fill="none" viewBox="0 0 16 16"><path fill="#000" d="m7.858 8.85-3.005 3.004a.5.5 0 0 1-.707-.707l3.005-3.005V7.86L4.146 4.853a.5.5 0 0 1 .707-.707l3.005 3.005h.283l3.005-3.005a.5.5 0 0 1 .707.707L8.848 7.86v.283l3.005 3.005a.5.5 0 0 1-.707.707L8.141 8.85l.001.001z"/></svg>
